apex/img/main-shield-icon.svg

<svg width="24" height="24" viewBox="0 0 24 24" fill="none" xmlns="http://www.w3.org/2000/svg">
<path d="M21.547 3.88622L12.3595 0.0716775C12.1293 -0.0238538 11.8706 -0.0239007 11.6405 0.0716775L2.45302 3.88622C2.10309 4.03154 1.875 4.37316 1.875 4.75205V9.38916C1.875 15.7741 5.73417 21.5176 11.6457 23.9305C11.8728 24.0232 12.1272 24.0232 12.3543 23.9305C18.2657 21.5177 22.125 15.7742 22.125 9.38916V4.75205C22.125 4.37316 21.897 4.03154 21.547 3.88622ZM20.25 9.38916C20.25 14.8171 17.0625 19.8138 12 22.0442C7.07278 19.8734 3.75 14.9641 3.75 9.38916V5.37793L12 1.95258L20.25 5.37793V9.38916ZM10.9638 12.5492L14.9933 8.51968C15.3594 8.15359 15.953 8.15354 16.3192 8.51968C16.6853 8.88582 16.6852 9.4794 16.3191 9.84549L11.6267 14.5379C11.2605 14.9041 10.6669 14.904 10.3009 14.5379L7.68084 11.9179C7.3147 11.5517 7.3147 10.9582 7.68084 10.5921C8.04698 10.226 8.64056 10.2259 9.00666 10.5921L10.9638 12.5492Z" fill="white"/>
</svg>

<svg width="24" height="24" fill="none" xmlns="http://www.w3.org/2000/svg"><path d="M21.547 3.886L12.359.072a.938.938 0 00-.719 0L2.454 3.886a.938.938 0 00-.578.866v4.637a15.7 15.7 0 009.77 14.541.938.938 0 00.71 0 15.7 15.7 0 009.77-14.54V4.751a.937.937 0 00-.578-.866zM20.25 9.39A13.828 13.828 0 0112 22.044 13.829 13.829 0 013.75 9.39V5.378L12 1.953l8.25 3.425v4.011zm-9.286 3.16l4.03-4.03a.938.938 0 011.325 1.326l-4.692 4.693a.937.937 0 01-1.326 0l-2.62-2.62a.937.937 0 111.326-1.326l1.957 1.957z" fill="#fff"/></svg>
